X:1
T:Esclare ci da madre
T:Francisco Guerrero
T:Source : Secondo libro delle Laude spirituali a tre et a quattro voci---Roma---A.Gardano---1583. Editor : André Vierendeels (03/12/17).
T:Esclare ci da madre
T:©
T:©
T:©
T:©
C:Francisco Guerrero
Z:©
%%score [ 1 2 3 4 ]
L:1/8
Q:1/4=120
M:4/4
K:F
V:1 treble nm="Soprano 1" snm="S 1"
V:2 treble nm="Soprano 2" snm="S 2"
V:3 treble nm="Alto" snm="A"
V:4 treble-8 nm="Tenor" snm="T"
V:1
 G8 | B4 c4 | d4 e4 | f8 | e4 g4- | g4 f4 | e8 | d8- | d8- | d8 | z8 | z8 | z2 G2 d2 d2 | %13
w: Es-|cla- re|ci da|ma-|dre'y vir-|* gen|pu-|ra,|_||||que'al su- mo|
 f2 f2 g4 | d4 g4- | g2 f2 g4- | g4 ^f4 | z4 d4 | d2 d2 c2 B2 | c4 d2 d2 | c2 A2 B4 | z4 z2 d2 | %22
w: rey de glo-|ria' na-|* mo- ra-|* ste,|qual|vist' au- ra que|ba- ste, mi-|ra- ral sol,|mi-|
 e2 f2 g2 d2 | f2 f2 e2 g2 | f4 g4 | z2 g2 g2 g2 | G2 G2 G4 | A6 B2 | c4 d4- | d4 ^c4 | d8 || %31
w: rar al sol de|tu su- bli- me'al-|tu- ra,|pues to- dos|los es- tre-|mos de|gran- de-||za,|
"^-natural" f4 e3 d | e2 f2 d3 d | c2 B2 B2 A2 | B8 |: z4 d4 | d4 c4 | d4 =B4 | c6 c2 | c2 B2 c4 | %40
w: en cier- raen-|si tu vir- gi-|nal pu- re- *|za,|y'es-|tan- do|dios en|tu mo-|ra da san-|
 =B8 | z4 z2 d2- | d2 d2 g4 | e2 c2 f4 | d4 B2 B2 | c2 d2 z2 d2 | d2 g4 e2 | c2 f4 e2 | d2 d2 d4 | %49
w: cta,|en-|* tri- que-|ze'l ser nue-|stro'y lo le-|van- ta, en-|ri- que- ze'l|ser nue- stro'y|lo le- van-|
 d8 :| %50
w: ta.|
V:2
 z4 G4 | G4 A4 | B4 c4 | d8 | ^c4 d4 | d8- | d4 c4 | B8 | A8- | A8 | z2 G2 d2 d2 | f2 f2 g4 | %12
w: Es-|cla- re|ci da|ma-|dre, y|vir-|* gen|pu-|ra,|_|que'al su- mo|rey de glo-|
 d4 z2 G2 | d2 d2 e2 e2 | g2 f4 e2 | e2 d4 c2 | d8 | z4 B4 | B2 B2 G2 G2 | A4 B4 | z4 z2 d2 | %21
w: ria, que'al|su- mo rey de|glo- ria' na-|mo- ra- *|ste,|qual|vist' au- ra que|ba- ste,|mi-|
 e2 f2 g4 | z2 d2 d4- | d2 c2 c2 e2 | d4 d4 | z2 d2 d2 d2 | D2 D2 D3 E | F4 A4- | A4 A4 | A8 | %30
w: ral al sol,|de tu|_ su- bli- me'al-|tu- ra,|pues to- dos|los es- tre- *|mos de|_ gran-|de-|
 A8 || d4 c3 B | c2 c2 B3 B | A2 F2 c4 | d8 |: z4 B4 | A4 G4 | A4 G4 | G6 G2 | A2 G2 G2 ^F2 | %40
w: za,|en cier- raen-|si tu vir- gi-|nal pu- re-|za,|y'es-|tan- do|dios en|tu mo-|ra da san- *|
 G4 z2 G2- | G2 G2 d4 | B2 G2 =B4 | c8 | z2 d2 d2 g2- | g2 ^f4 f2 | g2 d2 z2 c2 | c6 c2 | %48
w: cta, en-|* tri- que-|ze'l ser nue-|stro,|en- tri- que|_ ze'l ser|nue- stro, y|li le-|
 A2 B2 A4 | =B8 :| %50
w: van- * *|ta.|
V:3
 z4 D4 | D4 E4 | F4 A4 | A8 | A4 B4- | B4 A4- | A4 G4 | G8- | G4 F2 E2 | ^F4 z2 D2 | G2 G2 B2 B2 | %11
w: Es-|cla- re|ci da|ma-|dre, y|_ vir-|* gen|pu-||ra, que'al|su- mo rey de|
 A4 G4 | B4 A2 B2 | A2 D2 G2 G2 | B2 A2 c4 | G2 B4 G2 | B4 A4 | z4 G4 | F2 D2 E2 D2 | E4 F2 D2 | %20
w: glo- ria'|na- mo- ra-|ste, que'al su- mo|rey de glo-|ria' na- mo-|ra- ste,|qual|vist' au- ra que|ba- ste, mi-|
 E2 F2 G3 F | G2 A2 B2 B2 | A4 G2 B2 | A3 A G2 c2 | A4 B4 | z2 B2 B2 B2 | B,2 B,2 B,4 | C4 F4- | %28
w: rar al sol de|tu su- bli- me'al-|tu- ra, de|tu su- bli- me'al-|tu- ra,|pies to- dos|los es- tre-|mos de|
 F4 E2 D2 | E8 | ^F8 || B4 G3 F | G2 A2 F2 G2 | E2 D2 F4 | F8 |: z4 G4 | ^F4 G4 | ^F4 D4 | E6 E2 | %39
w: _ gran- *|de-|za,|en cier- raen-|si tu vir- gi-|nal pu- re-|za,|y'es-|tan- do|dios en|tu mo-|
 F2 D2 C4 | D8 | z2 D4 D2 | G4 D2 D2 | E4 A4 | F2 F2 G4 | A8 | z2 B2 G4 | A2 A2 A2 G2 | ^F2 G4 F2 | %49
w: ra da san-|cta,|en- tri-|que- ze'l ser|nue- stro'y|lo le- van-|ta,|el ser|nue- stro'y lo le-|van- * *|
 G8 :| %50
w: ta.|
V:4
 G8 | G4 c4 | B4 A4 | d8 | A4 G4 | d8 | A4 c4 | G8 | d8- | d8 | z4 z2 G2 | d2 d2 e2 e2 | g4 d2 g2 | %13
w: Es-|cla- re|ci da|ma-|dre, y|vir-|* gen|pu-|ra,|_|que'al|su- mo rey de|glo- ria, qu'al|
 d2 f2 c2 c2 | B2 d2 c4- | c2 d2 _e4 | d8 | z4 G4 | B2 B2 c2 G2 | c4 B2 B2 | c2 d2 G4 | z4 G4 | %22
w: su- mo rey de|glo- ria' na-|* mo- ra-|ste,|qual|vist' au- ra que|ba- ste, mi|rar al sol|mi-|
 c2 d2 G2 g2 | d2 f2 c2 c2 | d4 G2 g2 |"^RESIDUO" g2 g2 G2 G2 | G8 | F8 | A4 A4 | A8 | d8 || %31
w: rar al sol de|tu su- bli- me'al-|tu- ra pues|to- dos los es-|tre-|mos|de gran-|de-|za,|
 B4 c3 d | c2 F2 B2 G2 | A2 B2 F4 | B8 |: z4 G4 | d4 _e4 | d4 G4 | c6 c2 | F2 G2 A4 | G8- | G8 | %42
w: en cier- raen-|si tu vir- gi-|nal pu- re-|za,|y'es-|tan- do|dios en|tu mo-|ra da san-|sta,|_|
 z2 G4 G2 | c4 A2 F2 | B4 G4 | z2 d4 d2 | g4 e2 c2 | f6 c2 | d2 G2 d4 | G8 :| %50
w: en- tri-|que ze'l ser|nue- stro,|en- ri-|que- ze'l ser|nue- stro'y|lo le- van-|ta.|

